X:1
T:Title
%%score { ( 1 4 ) | ( 2 3 ) }
L:1/8
Q:1/4=100
M:4/4
K:F
V:1 treble nm="Grand Piano"
V:4 treble 
V:2 bass 
V:3 bass 
V:1
 B2 B2 BFDF | B2 c2 [Fd]2 [DB]2 | c2 c2 cBAB | c2 d2 [B,DB]4 | B2 B2 BFDF | B2 c2 [Fd]2 [FB]2 | %6
w: W.~H.~Ruebush * * * * *||||||
 [Fc]2 [Fc]2 .[Ec]2 .[B,EA]2 | [CEA]2 [B,EG]2 [A,F]4 | F2 F>F F2 F2 | F2 F2 [Fd]2 [DB]2 | %10
w: ||||
 F2 F>F F2 F2 | F2 F2 _e2 c2 | z4 .B2 z2 | [FB]2 c2 d2 [FB]2 | c2 c2 cBAB | c2 d2 [DB]4 |] %16
w: ||||||
V:2
 B,2 B,2 B,F,D,F, | [B,F]2 [F,A,F]2[K:bass] [B,,B,]2 [B,,B,]2 | z4 .A,2 .C2 | %3
 [F,A,_E]2 [F,A,F]2 B,,4 | B,2 B,2 B,F,D,F, | [B,F]2 [F,A,F]2[K:bass] [B,,B,]2 [D,B,]2 | %6
 [C,A,]2 [C,A,]2 z[K:treble] B z B | C,2 C,2 F,4 | F,2 F,>F, F,2 F,2 | %9
 [F,A,_E]2 [F,A,E]2 [B,,B,]2 [B,,B,]2 | F,2 F,>F, F,2 F,2 | [F,A,_E]2 [F,A,E]2 [F,CF]2 [F,A,F]2 | %12
 [B,,F,]2 [B,,F,]2 [B,,B,]2 [B,,F,B,]2 | [D,B,]2[K:treble] [F,A,F]2 [B,F]2[K:bass] [D,B,]2 | %14
 [F,A,F]2 [F,A,F]2 [F,F]-[F,B,F][F,F]-[F,B,F] | [F,A,_E]2 [F,A,F]2 [B,,B,]4 |] %16
V:3
 x8 | x4[K:bass] x4 | [F,A,_E]2 [F,A,E]2 [F,E]-[F,B,E][F,E]-[F,B,E] | x8 | x8 | x4[K:bass] x4 | %6
 z4 [C,A,]2[K:treble] C,2 | x8 | x8 | x8 | x8 | x8 | x8 | x2[K:treble] x4[K:bass] x2 | %14
 z4 .A,2 .C2 | x8 |] %16
V:4
 x8 | x8 | x8 | x8 | x8 | x8 | x8 | x8 | x8 | x8 | x8 | x8 | [DB]2 [DB]2 D-[DF]DF | x8 | x8 | x8 |] %16

